packages/axiom-materials/src/icon_svgs/clock.svg

<?xml version="1.0" encoding="UTF-8"?>
<svg width="16px" height="16px" viewBox="0 0 16 16" version="1.1" xmlns="http://www.w3.org/2000/svg" xmlns:xlink="http://www.w3.org/1999/xlink">
    <!-- Generator: sketchtool 43.2 (39069) - http://www.bohemiancoding.com/sketch -->
    <title>clock</title>
    <desc>Created with sketchtool.</desc>
    <defs></defs>
    <g id="Page-1" stroke="none" stroke-width="1" fill="none" fill-rule="evenodd">
        <g id="clock" fill="#000000">
            <path d="M8,1 C11.866,1 15,4.134 15,8 C15,11.866 11.866,15 8,15 C4.134,15 1,11.866 1,8 C1,4.134 4.134,1 8,1 Z M8,2.75 C5.105,2.75 2.75,5.105 2.75,8 C2.75,10.895 5.105,13.25 8,13.25 C10.895,13.25 13.25,10.895 13.25,8 C13.25,5.105 10.895,2.75 8,2.75 Z M9.0859,10.5 L6.9999,8.414 L6.9999,5.25 C6.9999,4.698 7.4479,4.25 7.9999,4.25 C8.5519,4.25 8.9999,4.698 8.9999,5.25 L8.9999,7.586 L10.4999,9.086 C10.8909,9.476 10.8909,10.11 10.4999,10.5 C10.1099,10.89 9.4759,10.89 9.0859,10.5 Z" id="Mask"></path>
        </g>
    </g>
</svg>

<svg height="16" viewBox="0 0 16 16" width="16" xmlns="http://www.w3.org/2000/svg"><path d="m8 1c3.866 0 7 3.134 7 7s-3.134 7-7 7-7-3.134-7-7 3.134-7 7-7zm0 1.75c-2.895 0-5.25 2.355-5.25 5.25s2.355 5.25 5.25 5.25 5.25-2.355 5.25-5.25-2.355-5.25-5.25-5.25zm1.0859 7.75-2.086-2.086v-3.164c0-.552.448-1 1-1s1 .448 1 1v2.336l1.5 1.5c.391.39.391 1.024 0 1.414-.39.39-1.024.39-1.414 0z" fill-rule="evenodd"/></svg>
